!!!COM: Schiørring, Niels
!!!CDT: 1743-1798
!!!OPR@@DA: Choral-Bog
!!!ONM: 21
!!!OTL@@DA: Friſk op, min Siel! forſage ey
**kern	**fb	**kern	**kern	**kern	**kern	**kern	**kern	**kern
*part6	*part6	*part6	*part5	*part5	*part4	*part3	*part2	*part1
*staff8	*	*staff7	*staff6	*staff5	*staff4	*staff3	*staff2	*staff1
*clefF4	*	*clefC1	*clefF4	*clefC1	*clefF4	*clefC4	*clefC3	*clefC1
*mclefF4	*	*mclefG2	*mclefF4	*mclefG2	*mclefF4	*mclefGv2	*mclefG2	*mclefG2
*k[f#]	*	*k[f#]	*k[f#]	*k[f#]	*k[f#]	*k[f#]	*k[f#]	*k[f#]
*G:	*	*G:	*G:	*G:	*G:	*G:	*G:	*G:
*M3/2	*	*M3/2	*M3/2	*M3/2	*M3/2	*M3/2	*M3/2	*M3/2
*	*	*	*^	*^	*	*	*	*
*	*	*	*	*	*	*^	*	*	*	*
2GG	.	2dd	2G	2GG	2dd	2g	2b\	2GG	2B	2g	2dd
=1	=1	=1	=1	=1	=1	=1	=1	=1	=1	=1	=1
1G	.	1b	1d	1G	1b	1g	1.r	1G	1d	1g	1b
2D#X	7 5	2a	2c	2D#X	2a	2f#	.	2D#X	2c	2f#	2a
=2	=2	=2	=2	=2	=2	=2	=2	=2	=2	=2	=2
1E	.	1g	1B	1E	1g	1e	1.r	1E	1B	1e	1g
2Dni	.	2a	2dni	2Dni	2a	2f#	.	2Dni	2d	2f#	2a
=3	=3	=3	=3	=3	=3	=3	=3	=3	=3	=3	=3
2G	.	1b	2B	2G	1b	2d	1.r	(2G	(2d	1g	1b
2E	.	.	1G	2E	.	1e	.	2E)	2e)	.	.
2C	.	2cc	.	2C	2cc	.	.	2C	2e	2g	2cc
=4	=4	=4	=4	=4	=4	=4	=4	=4	=4	=4	=4
1BB	6	1dd	1G	1BB	1dd	1g	1d\	1BB	1d	1g	1dd
*	*	*	*	*	*	*v	*v	*	*	*	*
2Fn	2	2b	2ryy	2Fn	2d	2g	2Fn	2d	2g	2b
=5	=5	=5	=5	=5	=5	=5	=5	=5	=5	=5
1E	6	1cc	1.ryy	1E	1e	1g	1E	1e	1g	1cc
2D	6 n	2dd	.	2D	2fn	[2b	2D	2f	[2b	2dd
=6	=6	=6	=6	=6	=6	=6	=6	=6	=6	=6
2C	7	1ee	1.ryy	2C	2e	2b]	(2C	(2e	(2b]	1ee
2C#X	5	.	.	2C#X	2g	1a	2C#X)	2g)	2a)	.
2D	#	2dd	.	2D	2f#Xi	.	2D	2f#Xi	2a	2dd
=7	=7	=7	=7	=7	=7	=7	=7	=7	=7	=7
*	*	*	*	*	*	*^	*	*	*	*
1.AA	#	1.cc#X	1.A	1.AA	1.cc#X	1.a	1.e\	1.AA	1.e	1.a	1.cc#X
=	=	=	=	=	=	=	=	=	=	=	=
1D	.	1dd	1A	1D	1dd	1a	1f#\	1D	1f#	1a	1dd
=8:|!	=8:|!	=8:|!	=8:|!	=8:|!	=8:|!	=8:|!	=8:|!	=8:|!	=8:|!	=8:|!	=8:|!
2D	.	2a	2ryy	2D	2d	2f#	2r	2D	2d	2f#	2a
=9	=9	=9	=9	=9	=9	=9	=9	=9	=9	=9	=9
2G	.	1b	2ryy	2G	1d	1g	1.r	(2G	1d	1g	1b
2GG	.	.	2ryy	2GG	.	.	.	2GG)	.	.	.
2E	6	2cc	2G	2E	2cc	2g	.	2E	2e	2g	2cc
=10	=10	=10	=10	=10	=10	=10	=10	=10	=10	=10	=10
1D	.	1dd	1A	1D	1dd	1f#	1.r	1D	1f#	1a	1dd
2D	.	2dd	2ryy	2D	2f#	2a	.	2D	2f#	2a	2dd
=11	=11	=11	=11	=11	=11	=11	=11	=11	=11	=11	=11
2E	6	1cc	2ryy	2E	2e	2g	1.r	(2E	(2e	(2g	1cc
2F#	5	.	1d	2F#	2ryy	2a	.	2F#)	2d)	2a)	.
2G	.	2b	.	2G	2b	2g	.	2G	2d	2g	2b
=12	=12	=12	=12	=12	=12	=12	=12	=12	=12	=12	=12
1D	.	1a	1d	1D	1a	1f#	1.r	1D	1d	1f#	1a
2F#	6	2dd	2d	2F#	2dd	2a	.	2F#	2d	2a	2dd
=13	=13	=13	=13	=13	=13	=13	=13	=13	=13	=13	=13
2G	.	1b	1d	2G	1b	1g	1.r	(2G	1d	1g	1b
2Fn	2	.	.	2Fn	.	.	.	2Fn)	.	.	.
2E	6	2cc	[2c	2E	2cc	2g	.	2E	[2c	2g	2cc
=14	=14	=14	=14	=14	=14	=14	=14	=14	=14	=14	=14
1D	7 n	1dd	2c]	1D	1dd	1fn	1.r	1D	(2c]	1fn	1dd
.	6	.	2B	.	.	.	.	.	2B)	.	.
2C	.	2ee	2G	2C	2ee	2g	.	2C	2c	2g	2ee
=15	=15	=15	=15	=15	=15	=15	=15	=15	=15	=15	=15
1AA	7	1.cc	1.A	1AA	1.cc	1g	1.r	(1AA	(1c	(1g	1.cc
2D	7	.	.	2D	.	2f#Xi	.	2D)	2d)	2f#Xi)	.
=16	=16	=16	=16	=16	=16	=16	=16	=16	=16	=16	=16
1GG	.	1b	1G	1GG	1b	1g	1d\	1GG	1d	1g	1b
*	*	*	*	*	*	*v	*v	*	*	*	*
2F#	6	2dd	2d	2F#	2dd	2a	2F#	2d	2a	2dd
=17	=17	=17	=17	=17	=17	=17	=17	=17	=17	=17
1G	.	1b	1d	1G	1b	1g	1G	1d	1g	1b
2D#X	7 5	2a	2c	2D#X	2a	2f#	2D#X	2c	2f#	2a
=18	=18	=18	=18	=18	=18	=18	=18	=18	=18	=18
1E	.	1g	1B	1E	1g	1e	1E	1B	1e	1g
2Dni	.	2a	2dni	2Dni	2a	2f#	2Dni	2d	2f#	2a
=19	=19	=19	=19	=19	=19	=19	=19	=19	=19	=19
2G	.	1b	2B	2G	1b	2d	2G	(2d	1g	1b
1E	5	.	1G	1E	.	1e	1E	2e)	.	.
.	6	2cc	.	.	2cc	.	.	2e	2g	2cc
=20	=20	=20	=20	=20	=20	=20	=20	=20	=20	=20
1D	.	1dd	1A	1D	1dd	1f#	1D	1f#	1a	1dd
2D	#4|	2b	2G#X	2D	2b	2e	2D	2e	2g#X	2b
=21	=21	=21	=21	=21	=21	=21	=21	=21	=21	=21
1C	6	1ee	1A	1C	1ee	1.e	1C	1e	1a	1ee
2BB	#6\	2dd	2G#X	2BB	2dd	.	2BB	2e	2g#X	2dd
=22	=22	=22	=22	=22	=22	=22	=22	=22	=22	=22
2AA	.	1cc	1A	2AA	1cc	2e	(2AA	(2e	(2a	1cc
2D	7	.	.	2D	.	2f#	2D)	2d)	2f#)	.
2GG	.	2b	2Gni	2GGni	2b	2d	2GG	2d	2gni	2b
=23	=23	=23	=23	=23	=23	=23	=23	=23	=23	=23
1C	6 5	1.a	1G	1C	1.a	1e	(1C	(1e	(1g	1.a
2D	.	.	2F#	2D	.	2d	2D)	2d)	2f#)	.
=24	=24	=24	=24	=24	=24	=24	=24	=24	=24	=24
*	*	*	*	*	*	*^	*	*	*	*
1GG	.	1g	1G	1GG	1g	1d	1B\	1GG	1B	1g	1g
*	*	*	*v	*v	*	*	*	*	*	*	*
*	*	*	*	*v	*v	*v	*	*	*	*
==	==	==	==	==	==	==	==	==
*-	*-	*-	*-	*-	*-	*-	*-	*-
!!!system-decoration: {(s1,s2,s3,s4)}{(s5,s6)}{(s7,s8)}
!!!RDF**kern: i = editorial accidental
!!!RDF**kern: > = above
!!!RDF**kern: < = below
!!!AGN: chorale
!!!EED: Derek Remeš
!!!EED2: Victor Phan
!!!END: 2023/11/28
!!!ENC: Wolfgang Drescher
!!!EEV: 2023/12/08
!!!title: @{ONM}. @{OTL}